X: 183
T: Mrs Edmondstoune of Newton's Favorite
R: jig
Q: "Slow"
B: William Shepherd "2nd Collection" 1800 p.18 #2
F: http://imslp.org/wiki/File:PMLP73094-Shepherd_Collections_HMT.pdf
C: William Shepherd (17??-1812)
Z: 2012 John Chambers <jc:trillian.mit.edu>
M: 6/8
L: 1/8
K: F
F/A/ |\
c2c Tc>dB | A>BG F2C/B,/ | A,>CF B,>DF | G>BG {F}E>DC |\
c2c Tc>dB | A>BG TF2C/B,/ | A,>CF B,>DF | G>BE {G}TF2 :|
c |\
~f2f ~f>ef | {ef}g2e Tc>de | Tf>ef g>ab | {b}a>gf {a}g>ec |\
~f2f ~f>ef | {ef}g2e Tc2B | A>cf A>BG | [FA,][FA,][FA,] [F2A,2] ||
c |\
~f2f ~f>ef | {ef}g2e Tc>de | Tf>ef g>ab | {b}a>gf {a}g>ec |\
(f>a).c (d>f).A | {d}c>AF E>GC | [DB,]>BA {A}G>FE | [FA,][FA,][FA,] [F2A,2] ||
